static/images/mobile/copyright/wikipedia-wordmark-vep.svg

<?xml version="1.0" encoding="UTF-8"?>
<svg width="120px" height="22px" viewBox="0 0 120 22" version="1.1" xmlns="http://www.w3.org/2000/svg" xmlns:xlink="http://www.w3.org/1999/xlink">
    <title>vep-wordmark</title>
    <g id="Page-1" stroke="none" stroke-width="1" fill="none" fill-rule="evenodd">
        <path d="M21.1195224,2.42885993e-05 C21.2155595,0.096085699 21.263617,0.277557969 21.263617,0.544380377 C21.263617,0.811239218 21.215562,0.992699344 21.1195224,1.08873647 C20.7672685,1.1314844 20.4550641,1.19548486 20.1829042,1.28087143 C19.9107055,1.36624586 19.6678791,1.49435607 19.4544248,1.66511707 C19.2409316,1.8359145 19.0701524,1.98267836 18.9420871,2.10540866 C18.8139842,2.22817538 18.6752259,2.43631653 18.5258121,2.72981997 C18.3763619,3.02337198 18.2722938,3.23417273 18.2136065,3.36223437 C18.1548888,3.49034459 18.0508145,3.7465043 17.9014008,4.13074995 L11.1129279,20.8457632 C10.8994421,21.3580948 10.6379365,21.6142667 10.3284098,21.6142667 C10.0188626,21.6142667 9.76803177,21.3580948 9.57591502,20.8457632 L3.10765213,4.06670091 C2.95821653,3.67179257 2.85148028,3.39694278 2.78744096,3.24216368 C2.72339192,3.08740887 2.63266914,2.87926772 2.5152617,2.61775237 C2.39785061,2.35626131 2.31245918,2.18281642 2.25909227,2.09740556 C2.20571807,2.01203114 2.1176634,1.89462005 1.99491853,1.7451723 C1.87216881,1.59576098 1.76276324,1.49969957 1.66670183,1.45698806 C1.57064042,1.41436157 1.44255328,1.35825491 1.2824489,1.28887452 C1.1223421,1.21953057 0.956900306,1.17411089 0.786122306,1.1527855 C0.615341878,1.13141153 0.407204369,1.11015901 0.16170978,1.08878504 C0.0656483699,0.992723632 0.0122790306,0.811287795 0.00160419119,0.544428954 C-0.00908279252,0.277606546 0.0336287094,0.0961585648 0.129688905,2.42885993e-05 C2.17903705,0.0428208006 3.315786,0.064194768 3.53993698,0.0640733251 C4.13765998,0.0640976137 5.46119676,0.0426993576 7.51055341,2.42885993e-05 C7.60660267,0.0961342762 7.65464066,0.277606546 7.65464795,0.544428954 C7.65464066,0.811287795 7.6066051,0.992747921 7.51055341,1.08878504 C6.41115546,1.19553344 5.76006069,1.41436157 5.55726668,1.74522087 C5.35446051,2.07612875 5.45051828,2.72722109 5.84545576,3.69851003 L11.064896,17.0513132 L11.2250016,17.0513132 L16.3964087,3.90665118 C16.5458249,3.52240554 16.6525612,3.20219679 16.7166199,2.94601279 C16.7806447,2.68986522 16.8046661,2.44169646 16.7886721,2.20151864 C16.7726416,1.96137726 16.687255,1.77192619 16.5325026,1.63314113 C16.3777175,1.49440465 16.1482327,1.37699356 15.8440496,1.28092001 C15.5398324,1.1848586 15.1475752,1.12083385 14.667273,1.08878504 C14.5711958,0.992675055 14.5231602,0.811239218 14.5231748,0.544380377 C14.5231602,0.277557969 14.5711934,0.0961099876 14.6672694,2.42885993e-05 C16.7166041,0.0427722234 17.90672,0.0641461909 18.237623,0.0640247479 C18.408384,0.0640490365 19.3690151,0.0426507804 21.1195224,2.42885993e-05 Z M22.4635927,6.70126956 L22.5880706,6.7015646 C22.9077693,6.7015646 23.449481,6.69268408 24.0017383,6.68158343 L24.3691515,6.67392718 C25.1585424,6.65694273 25.8718893,6.63841424 25.8718893,6.63841424 L25.9034644,6.7015646 L25.9034644,7.39621854 C25.9034644,7.49094408 25.8403141,7.55409443 25.7140134,7.55409443 L25.0509346,7.61845922 C24.0721041,7.71197033 23.7247771,7.96578619 23.7247771,8.59850421 L23.7247771,19.1130389 C23.7247771,19.8076928 24.0405289,20.2181701 25.0509346,20.3128957 L25.7140134,20.3772605 C25.8087389,20.3772605 25.9034644,20.4391964 25.9034644,20.5654971 L25.9034644,21.2285759 L25.8718893,21.2929406 C25.8718893,21.2929406 23.6679856,21.2338278 22.622823,21.2289018 L22.4933451,21.2285759 C22.1618057,21.2285759 21.6082534,21.2376272 21.0458205,21.2489413 L20.6718885,21.2567448 C19.8689872,21.2740558 19.1463761,21.2929406 19.1463761,21.2929406 L19.0832257,21.2285759 L19.0832257,20.5654971 C19.0832257,20.4391964 19.1779513,20.3772605 19.304252,20.3772605 L19.9357556,20.3128957 C20.9777365,20.2181701 21.2934883,19.7129673 21.2934883,19.1130389 L21.2934883,8.59850421 C21.2934883,7.90506469 20.9133717,7.71318476 19.9357556,7.62088808 L19.304252,7.55530886 C19.1779513,7.55530886 19.0832257,7.52616255 19.0832257,7.42900815 L19.0832257,6.7015646 L19.1148009,6.63841424 C19.1148009,6.63841424 21.413676,6.69661361 22.4635927,6.70126956 Z M33.0430982,19.1130389 C33.0430982,19.8076928 33.4535755,20.1550198 34.3692557,20.3128957 L34.7165827,20.3772605 C34.8113082,20.4076212 34.9060338,20.4391964 34.9060338,20.5654971 L34.9060338,21.2285759 L34.8744586,21.2929406 C34.8744586,21.2929406 32.8852223,21.2285759 31.9379669,21.2285759 C31.0538619,21.2285759 28.4646972,21.2929406 28.4646972,21.2929406 L28.4015469,21.2285759 L28.4015469,20.5654971 C28.4015469,20.4391964 28.4962724,20.3772605 28.6225731,20.3772605 L29.2540767,20.3128957 C30.2013321,20.2181701 30.6118094,19.7129673 30.6118094,19.1130389 L30.6118094,8.59850421 C30.6118094,7.90506469 30.2644825,7.71318476 29.2540767,7.62088808 L28.6225731,7.55530886 C28.4962724,7.55530886 28.4015469,7.52616255 28.4015469,7.42900815 L28.4015469,6.7015646 L28.4331221,6.63841424 C28.4331221,6.63841424 31.0222868,6.7015646 32.0011173,6.7015646 C32.8864368,6.7015646 34.8744586,6.63841424 34.8744586,6.63841424 L34.9060338,6.7015646 L34.9060338,7.39621854 C34.9060338,7.49094408 34.8428834,7.52251926 34.7165827,7.55409443 L34.3692557,7.61845922 C33.3904252,7.80669587 33.0430982,7.96578619 33.0430982,8.59850421 L33.0430982,13.3663563 C34.0850791,13.3663563 34.6850075,12.8307926 36.0743154,11.3455448 C37.3373226,9.95502248 38.3161531,8.78916971 38.3161531,8.18802688 C38.3161531,7.93421101 38.0319765,7.65124883 37.4004729,7.55530886 C37.2741722,7.52494812 37.2110219,7.49215851 37.2110219,7.39743297 L37.2110219,6.66998942 L37.242597,6.63962867 C37.242597,6.63962867 39.8001866,6.70277903 40.7158667,6.70277903 C41.5368214,6.70277903 42.9261293,6.63962867 42.9261293,6.63962867 L43.0208548,6.66998942 L43.0208548,7.39743297 C43.0208548,7.49215851 42.9261293,7.55530886 42.7682534,7.55530886 C41.5368214,7.6500344 40.6842916,7.71318476 39.5475851,9.0077671 L36.8321197,12.1324954 C36.2953417,12.7020631 36.1058906,13.0481756 36.1058906,13.3019915 C36.1058906,13.4914425 36.2321913,13.648104 36.3900672,13.8375551 L41.1579193,19.5842377 C41.5368214,20.0250758 42.2946257,20.2157413 42.9261293,20.3408276 L43.0840052,20.3711883 C43.1787307,20.4027635 43.3050314,20.4659138 43.3050314,20.5606394 L43.3050314,21.2237181 L43.2103059,21.2552933 C43.2103059,21.2552933 41.5368214,21.2237181 40.6527164,21.2237181 C39.8633369,21.2237181 38.7266305,21.2552933 38.7266305,21.2552933 L38.6950553,21.2237181 L38.6950553,20.844816 C38.6950553,20.4331242 38.6634801,20.0882261 38.2214276,19.5830233 L34.7165827,15.2244341 C34.242955,14.5917161 33.7377522,14.4362691 33.0430982,14.4362691 L33.0430982,19.1130389 L33.0430982,19.1130389 L33.0430982,19.1130389 Z M50.0657631,19.1130389 C50.0657631,19.8076928 50.3815149,20.2181701 51.3919206,20.3128957 L52.0549993,20.3772605 C52.1497249,20.3772605 52.2444504,20.4391964 52.2444504,20.5654971 L52.2444504,21.2285759 L52.2128752,21.2929406 C52.2128752,21.2929406 49.8131616,21.2285759 48.8343311,21.2285759 C47.9502261,21.2285759 45.4873621,21.2929406 45.4873621,21.2929406 L45.4242117,21.2285759 L45.4242117,20.5654971 C45.4242117,20.4391964 45.5189373,20.3772605 45.645238,20.3772605 L46.2767416,20.3128957 C47.3187225,20.2181701 47.6344743,19.7129673 47.6344743,19.1130389 L47.6344743,8.59850421 C47.6344743,7.90506469 47.2555721,7.71318476 46.2767416,7.62088808 L45.645238,7.55530886 C45.5189373,7.55530886 45.4242117,7.52616255 45.4242117,7.42900815 L45.4242117,6.7015646 L45.4557869,6.63841424 C45.4557869,6.63841424 47.9502261,6.7015646 48.9290566,6.7015646 C49.7815864,6.7015646 52.2128752,6.63841424 52.2128752,6.63841424 L52.2444504,6.7015646 L52.2444504,7.39621854 C52.2444504,7.49094408 52.1813001,7.55409443 52.0549993,7.55409443 L51.3919206,7.61845922 C50.41309,7.71197033 50.0657631,7.96578619 50.0657631,8.59850421 L50.0657631,19.1130389 L50.0657631,19.1130389 Z M56.8884306,8.66044013 C56.8884306,7.68160958 56.4779533,7.6500344 54.9939199,7.55530886 C54.8044688,7.55530886 54.7728936,7.46179776 54.7728936,7.39743297 L54.7728936,6.67120385 L54.836044,6.63962867 C55.3096717,6.63962867 57.1726072,6.70277903 58.0882874,6.70277903 C58.9723924,6.70277903 60.2353996,6.63962867 61.4036812,6.63962867 C65.8849278,6.63962867 66.7058825,8.84867678 66.7058825,10.493015 C66.7058825,12.3887401 65.7902023,15.3555925 61.3089557,15.3555925 C60.5195762,15.3555925 59.8880726,15.2912278 59.318505,15.0398408 L59.318505,19.2684859 C59.318505,19.9631398 59.6974071,20.1222302 60.7090273,20.2788916 L61.3417453,20.3736172 C61.468046,20.4051923 61.5627716,20.437982 61.5627716,20.5630682 L61.5627716,21.226147 L61.5324108,21.2892974 C61.5324108,21.2892974 59.0063965,21.226147 58.0275659,21.226147 C57.1434609,21.226147 54.7753225,21.2892974 54.7753225,21.2892974 L54.7437473,21.226147 L54.7437473,20.5630682 C54.7437473,20.4367675 54.8068977,20.4051923 54.9331984,20.3736172 L55.5962771,20.2788916 C56.5751077,20.1525909 56.8908595,19.8684143 56.8908595,19.2684859 L56.8884306,8.66044013 L56.8884306,8.66044013 L56.8884306,8.66044013 Z M59.3197194,14.1557357 C59.951223,14.4095516 60.7406025,14.4399123 61.3721061,14.4399123 C63.2678312,14.4399123 64.1798681,13.300777 64.1798681,10.8719171 C64.1798681,8.1564517 62.9484362,7.55652329 61.2142302,7.55652329 C59.6974071,7.55652329 59.318505,7.84069991 59.318505,8.66165456 L59.3197194,14.1557357 L59.3197194,14.1557357 L59.3197194,14.1557357 Z M72.1440999,21.2285759 C71.1968445,21.2285759 69.0193716,21.2929406 69.0193716,21.2929406 L68.9865819,21.2285759 L68.9865819,20.5339219 C68.9865819,20.471986 69.0193716,20.3772605 69.176033,20.3772605 L69.9034766,20.3128957 C70.8835216,20.2181701 71.1676982,19.5866665 71.1676982,18.9563774 L71.1676982,8.53656828 C71.1676982,7.8079103 70.7875816,7.68282401 69.9034766,7.62088808 L69.176033,7.55530886 C68.9865819,7.52616255 68.9865819,7.46179776 68.9865819,7.42900815 L68.9865819,6.7015646 L69.0193716,6.63841424 C69.0193716,6.63841424 71.4810211,6.7015646 72.4282765,6.7015646 L77.0698278,6.7015646 C78.0170832,6.7015646 80.2601353,6.63841424 80.2601353,6.63841424 L80.3245001,6.7015646 C80.3548609,8.0592973 80.5758871,9.29315815 80.7981278,10.4918005 L80.0099628,10.6181012 C79.6638502,9.44860518 79.0639218,7.77633512 77.0431103,7.77633512 L74.517096,7.77633512 C73.9171676,7.77633512 73.6014158,7.99736137 73.6014158,8.53292499 L73.6014158,13.1125404 L75.9683398,13.1125404 C76.8536593,13.1125404 77.0734711,12.7336382 77.2009862,12.1021347 L77.3892229,11.4390559 C77.3892229,11.3443304 77.4535877,11.2799656 77.578674,11.2799656 L78.1142376,11.2799656 C78.1786024,11.2799656 78.1786024,11.3127552 78.1786024,11.3746911 C78.1142376,12.0693451 77.9891513,12.9546645 77.9891513,13.7124688 C77.9891513,14.5006338 78.115452,15.164927 78.1786024,15.8911562 L78.1142376,15.9555209 L77.578674,15.9555209 C77.4220125,15.9555209 77.3564333,15.8911562 77.3564333,15.7964306 L77.1985574,15.1029911 C77.0722567,14.4702731 76.7880801,14.1229461 75.9646965,14.1229461 L73.598987,14.1229461 L73.598987,18.955163 C73.598987,19.5538769 73.9438851,20.1538053 74.5146672,20.1538053 L77.5143092,20.1538053 C79.1246433,20.1538053 80.0099628,19.1433996 80.3876505,17.5002759 L81.1758155,17.5950014 L80.5430975,21.2249326 L80.4799472,21.2880829 C80.4799472,21.2880829 78.6170116,21.2249326 77.6697562,21.2249326 L72.1440999,21.2285759 L72.1440999,21.2285759 Z M84.0187961,20.3772605 L84.7450252,20.3128957 C85.693495,20.2181701 86.0092468,19.9339935 86.0092468,18.9563774 L86.0092468,8.53656828 C86.0092468,7.71318476 85.7857917,7.71318476 84.7450252,7.62088808 L84.0528001,7.55530886 C83.9264994,7.55530886 83.829345,7.49215851 83.829345,7.39743297 L83.829345,6.70277903 L83.8597058,6.63962867 C83.8597058,6.63962867 86.6395359,6.70277903 87.2091036,6.70277903 C87.8066031,6.70277903 90.5560726,6.63962867 91.3770272,6.63962867 C96.6500822,6.63962867 99.2404613,9.9234473 99.2404613,14.1229461 C99.2404613,19.6498169 95.3239246,21.2892974 91.8202942,21.2892974 C89.2942799,21.2892974 88.190363,21.226147 87.2115325,21.226147 C86.2630627,21.226147 83.863349,21.2892974 83.863349,21.2892974 L83.8317739,21.226147 L83.8317739,20.5630682 C83.829345,20.471986 83.8937098,20.3772605 84.0187961,20.3772605 L84.0187961,20.3772605 Z M91.0612755,20.3772605 C94.5333307,20.3772605 96.4934207,19.0838925 96.4934207,14.6609386 C96.4934207,11.3783344 95.7659771,7.55530886 90.461347,7.55530886 C89.2299151,7.55530886 88.4405356,7.74475994 88.4405356,8.53656828 L88.4405356,18.9563774 C88.4405356,19.8380535 88.6603474,20.3772605 91.0612755,20.3772605 Z M106.694632,19.1130389 C106.694632,19.8076928 107.010384,20.2181701 108.02079,20.3128957 L108.683869,20.3772605 C108.778594,20.3772605 108.87332,20.4391964 108.87332,20.5654971 L108.87332,21.2285759 L108.841745,21.2929406 C108.841745,21.2929406 106.442031,21.2285759 105.464415,21.2285759 C104.579095,21.2285759 102.117446,21.2929406 102.117446,21.2929406 L102.053081,21.2285759 L102.053081,20.5654971 C102.053081,20.4391964 102.147807,20.3772605 102.274107,20.3772605 L102.906825,20.3128957 C103.947592,20.2181701 104.264558,19.7129673 104.264558,19.1130389 L104.264558,8.59850421 C104.264558,7.90506469 103.884441,7.71318476 102.906825,7.62088808 L102.274107,7.55530886 C102.147807,7.55530886 102.053081,7.52616255 102.053081,7.42900815 L102.053081,6.7015646 L102.084656,6.63841424 C102.084656,6.63841424 104.579095,6.7015646 105.555497,6.7015646 C106.408027,6.7015646 108.84053,6.63841424 108.84053,6.63841424 L108.870891,6.7015646 L108.870891,7.39621854 C108.870891,7.49094408 108.806526,7.55409443 108.68144,7.55409443 L108.018361,7.61845922 C107.039531,7.71197033 106.692204,7.96578619 106.692204,8.59850421 L106.694632,19.1130389 L106.694632,19.1130389 L106.694632,19.1130389 Z M117.00609,17.211363 C117.006078,17.6810073 117.022121,18.0679369 117.05406,18.3721273 C117.086121,18.6763298 117.150121,18.9431765 117.246183,19.1726552 C117.342244,19.4021461 117.448981,19.5755909 117.566392,19.693002 C117.683827,19.8104374 117.865251,19.9091463 118.11076,19.9892015 C118.356245,20.0692324 118.59907,20.119947 118.839236,20.1412967 C119.079389,20.1626707 119.418276,20.1840446 119.855908,20.2052972 C119.951969,20.3013586 120,20.480147 120,20.7416502 C120,21.0031655 119.951909,21.1819418 119.855908,21.2780032 C117.678459,21.2353767 116.269538,21.2140027 115.629121,21.2140027 C114.924654,21.2140027 113.505046,21.2353767 111.370309,21.2780032 C111.274248,21.1819418 111.226144,21.0031655 111.226144,20.7416502 C111.226144,20.480147 111.274187,20.3013707 111.370309,20.2052972 C111.807929,20.1839232 112.146828,20.1625492 112.386981,20.1412967 C112.627135,20.1199227 112.869972,20.069281 113.115469,19.9892015 C113.360954,19.9091706 113.542414,19.8104131 113.659825,19.693002 C113.777261,19.5755667 113.883973,19.4021461 113.980034,19.1726552 C114.076096,18.9431765 114.140133,18.6763298 114.172157,18.3721273 C114.204218,18.0679369 114.220127,17.6810073 114.220127,17.211363 L114.220127,4.06670091 C114.220127,3.3729335 114.185394,2.83924011 114.11605,2.46564502 C114.046706,2.09208636 113.88656,1.80123038 113.635731,1.59307709 C113.384903,1.38496022 113.107381,1.25687429 112.803191,1.2088193 C112.498988,1.16084932 112.021341,1.12077313 111.370236,1.08871218 C111.274175,0.992650766 111.226144,0.811214929 111.226144,0.544356088 C111.226144,0.27753368 111.274114,0.096085699 111.370236,0 C113.547673,0.0427479348 114.956606,0.0641219023 115.597023,0.0640004593 C116.30149,0.0640247479 117.721086,0.0426264918 119.855835,0 C119.951896,0.0960614104 120,0.27753368 120,0.544356088 C120,0.811214929 119.951836,0.992675055 119.855835,1.08871218 C119.204731,1.12077313 118.727083,1.16084932 118.422893,1.2088193 C118.118678,1.25691073 117.841169,1.38496022 117.59034,1.59307709 C117.3395,1.80123038 117.179401,2.09208636 117.110021,2.46564502 C117.040677,2.83924011 117.005944,3.3729335 117.005944,4.06670091 L117.00609,17.211363 Z" id="vep-wordmark" fill="#000000" fill-rule="nonzero"></path>
    </g>
</svg>

<svg xmlns="http://www.w3.org/2000/svg" width="120" height="22"><path fill="#000" fill-rule="nonzero" d="M21.12 0c.096.096.144.278.144.544 0 .267-.048.449-.144.545a5.261 5.261 0 0 0-.937.192 2.216 2.216 0 0 0-.729.384c-.213.17-.384.318-.512.44-.128.123-.267.331-.416.625-.15.293-.254.504-.312.632a17.42 17.42 0 0 0-.313.769l-6.788 16.715c-.214.512-.475.768-.785.768-.31 0-.56-.256-.752-.768L3.108 4.066c-.15-.394-.257-.67-.32-.824a24.307 24.307 0 0 0-.273-.624 5.204 5.204 0 0 0-.256-.52 3.698 3.698 0 0 0-.264-.353c-.123-.15-.232-.245-.328-.288a49.802 49.802 0 0 0-.385-.168 1.806 1.806 0 0 0-.496-.136C.616 1.13.407 1.11.162 1.089.066.993.012.81.002.544-.01.278.034.096.13 0c2.049.043 3.186.064 3.41.064C4.138.064 5.46.043 7.51 0c.097.096.145.278.145.544 0 .267-.048.449-.144.545-1.1.107-1.75.325-1.954.656-.203.331-.106.982.288 1.954l5.22 13.352h.16l5.171-13.144c.15-.385.257-.705.32-.961a2.4 2.4 0 0 0 .073-.744.8.8 0 0 0-.256-.569c-.155-.139-.385-.256-.689-.352-.304-.096-.696-.16-1.177-.192-.096-.096-.144-.278-.144-.545 0-.266.048-.448.144-.544 2.05.043 3.24.064 3.57.064.171 0 1.132-.021 2.883-.064Zm1.344 6.701h.124c.32 0 .861-.008 1.414-.02l.367-.007c.79-.017 1.503-.036 1.503-.036l.031.064v.694c0 .095-.063.158-.189.158l-.663.064c-.979.094-1.326.348-1.326.98v10.515c0 .695.316 1.105 1.326 1.2l.663.064c.095 0 .19.062.19.188v.664l-.032.064s-2.204-.06-3.25-.064h-.129c-.331 0-.885.009-1.447.02l-.374.008c-.803.017-1.526.036-1.526.036l-.063-.064v-.664c0-.126.095-.188.221-.188l.632-.064c1.042-.095 1.357-.6 1.357-1.2V8.599c0-.694-.38-.886-1.357-.978l-.632-.066c-.126 0-.22-.029-.22-.126v-.727l.03-.064s2.3.059 3.35.063Zm10.58 12.412c0 .695.41 1.042 1.325 1.2l.348.064c.094.03.189.062.189.188v.664l-.032.064s-1.989-.064-2.936-.064c-.884 0-3.473.064-3.473.064l-.063-.064v-.664c0-.126.094-.188.22-.188l.632-.064c.947-.095 1.358-.6 1.358-1.2V8.599c0-.694-.348-.886-1.358-.978l-.631-.066c-.127 0-.221-.029-.221-.126v-.727l.031-.064s2.59.064 3.568.064c.885 0 2.873-.064 2.873-.064l.032.064v.694c0 .095-.063.127-.19.158l-.347.064c-.979.189-1.326.348-1.326.98v4.768c1.042 0 1.642-.535 3.031-2.02 1.263-1.391 2.242-2.557 2.242-3.158 0-.254-.284-.537-.916-.633-.126-.03-.189-.063-.189-.158V6.67l.032-.03s2.557.063 3.473.063c.82 0 2.21-.063 2.21-.063l.095.03v.727c0 .095-.095.158-.253.158-1.231.095-2.084.158-3.22 1.453l-2.716 3.124c-.537.57-.726.916-.726 1.17 0 .19.126.346.284.536l4.768 5.746c.379.441 1.137.632 1.768.757l.158.03c.095.032.221.095.221.19v.663l-.095.031s-1.673-.031-2.557-.031c-.79 0-1.926.031-1.926.031l-.032-.031v-.38c0-.41-.032-.756-.474-1.261l-3.504-4.359c-.474-.632-.98-.788-1.674-.788v4.677Zm17.022 0c0 .695.316 1.105 1.326 1.2l.663.064c.095 0 .19.062.19.188v.664l-.032.064s-2.4-.064-3.379-.064c-.884 0-3.347.064-3.347.064l-.063-.064v-.664c0-.126.095-.188.221-.188l.632-.064c1.042-.095 1.357-.6 1.357-1.2V8.599c0-.694-.378-.886-1.357-.978l-.632-.066c-.126 0-.22-.029-.22-.126v-.727l.03-.064s2.495.064 3.474.064c.853 0 3.284-.064 3.284-.064l.031.064v.694c0 .095-.063.158-.189.158l-.663.064c-.979.094-1.326.348-1.326.98v10.515ZM56.888 8.66c0-.978-.41-1.01-1.894-1.105-.19 0-.221-.093-.221-.158v-.726l.063-.031c.474 0 2.337.063 3.252.063.884 0 2.147-.063 3.316-.063 4.48 0 5.302 2.209 5.302 3.853 0 1.896-.916 4.863-5.397 4.863-.79 0-1.42-.065-1.99-.316v4.228c0 .695.378.854 1.39 1.01l.633.096c.126.031.22.064.22.19v.662l-.03.063s-2.526-.063-3.504-.063c-.885 0-3.253.063-3.253.063l-.031-.063v-.663c0-.126.063-.158.19-.19l.662-.094c.98-.126 1.295-.41 1.295-1.01L56.888 8.66Zm2.432 5.496c.631.254 1.42.284 2.052.284 1.896 0 2.808-1.14 2.808-3.568 0-2.716-1.232-3.315-2.966-3.315-1.517 0-1.895.284-1.895 1.105v5.494Zm12.824 7.073c-.947 0-3.125.064-3.125.064l-.032-.064v-.695c0-.062.032-.157.189-.157l.727-.064c.98-.095 1.265-.726 1.265-1.357V8.536c0-.728-.38-.853-1.265-.915l-.727-.066c-.19-.029-.19-.093-.19-.126v-.727l.033-.064s2.462.064 3.41.064h4.64c.948 0 3.191-.064 3.191-.064l.065.064c.03 1.357.25 2.591.473 3.79l-.788.126c-.346-1.17-.946-2.842-2.967-2.842h-2.526c-.6 0-.916.221-.916.757v4.58h2.367c.886 0 1.105-.38 1.233-1.01l.188-.664c0-.095.065-.159.19-.159h.535c.065 0 .065.033.065.095-.065.694-.19 1.58-.19 2.337 0 .789.126 1.453.19 2.18l-.065.064h-.535c-.157 0-.223-.065-.223-.16l-.157-.693c-.127-.633-.41-.98-1.234-.98h-2.366v4.832c0 .599.345 1.199.916 1.199h3c1.61 0 2.495-1.01 2.873-2.654l.788.095-.633 3.63-.063.063s-1.863-.063-2.81-.063l-5.526.004Zm11.875-.852.726-.064c.948-.095 1.264-.379 1.264-1.357V8.536c0-.823-.223-.823-1.264-.915l-.692-.066c-.127 0-.224-.063-.224-.158v-.694l.03-.063s2.78.063 3.35.063c.598 0 3.347-.063 4.168-.063 5.273 0 7.863 3.283 7.863 7.483 0 5.527-3.916 7.166-7.42 7.166-2.526 0-3.63-.063-4.608-.063-.949 0-3.349.063-3.349.063l-.031-.063v-.663a.178.178 0 0 1 .187-.186Zm7.042 0c3.472 0 5.432-1.293 5.432-5.716 0-3.283-.727-7.106-6.032-7.106-1.231 0-2.02.19-2.02.982v10.42c0 .881.22 1.42 2.62 1.42Zm15.634-1.264c0 .695.315 1.105 1.326 1.2l.663.064c.095 0 .19.062.19.188v.664l-.032.064s-2.4-.064-3.378-.064c-.885 0-3.347.064-3.347.064l-.064-.064v-.664c0-.126.095-.188.221-.188l.633-.064c1.04-.095 1.358-.6 1.358-1.2V8.599c0-.694-.38-.886-1.358-.978l-.633-.066c-.126 0-.22-.029-.22-.126v-.727l.03-.064s2.495.064 3.471.064c.853 0 3.286-.064 3.286-.064l.03.064v.694c0 .095-.064.158-.19.158l-.663.064c-.978.094-1.326.348-1.326.98l.003 10.515Zm10.311-1.902c0 .47.016.857.048 1.161.032.304.096.571.192.8.096.23.203.404.32.521.118.117.3.216.545.296.245.08.488.13.728.152.24.022.58.043 1.017.064.096.096.144.275.144.537 0 .261-.048.44-.144.536a284.917 284.917 0 0 0-4.227-.064c-.704 0-2.124.021-4.259.064-.096-.096-.144-.275-.144-.536 0-.262.048-.44.144-.537.438-.021.777-.042 1.017-.064.24-.021.483-.072.728-.152.246-.08.427-.179.545-.296.117-.117.224-.29.32-.52.096-.23.16-.497.192-.8.032-.305.048-.692.048-1.162V4.067c0-.694-.035-1.228-.104-1.601-.07-.374-.23-.665-.48-.873a1.702 1.702 0 0 0-.833-.384 14.889 14.889 0 0 0-1.433-.12c-.096-.096-.144-.278-.144-.545 0-.266.048-.448.144-.544 2.178.043 3.587.064 4.227.064.704 0 2.124-.021 4.259-.064.096.096.144.278.144.544 0 .267-.048.449-.144.545-.651.032-1.129.072-1.433.12a1.703 1.703 0 0 0-.833.384c-.25.208-.41.5-.48.873s-.104.907-.104 1.6v13.145Z"/></svg>
